X:1
T:Aus tiefer Not (mel. 2, 2vv, LXXVIII)
T:Michael Praetorius
T:Aus tiefer Not (mel. 2, 2vv, LXXVIII)
C:Michael Praetorius
%%score [ 1 2 ]
L:1/8
Q:1/4=100
M:4/2
K:C
V:1 treble nm="Soprano" snm="S"
V:2 treble-8 nm="Tenor" snm="T"
V:1
 z4 c4 B2 c2 d4- | d2 d2 c2 d2 e8 | f4 e2 d2 c2 BA B2 c2 | d8 c4 z2 f2 | e4 d4 c2 f2 e2 d2 | %5
w: Aus tie- fer Not|_ schrei ich zu dir,|Herr Gott, er- hör _ _ _ mein|Ru- fen. Herr|Gott, er- hör, Herr Gott, er-|
 c2 BA B2 c2 d8 | c4 z2 G2 F2 G2 A4- | A2 A2 G2 A2 B3 G A2 B2 | c4 z4 f4 e4 | d2 c4 BA B2 c2 d4 | %10
w: hör _ _ _ mein Ru-|fen. Dein gnä- dig Ohr|_ neig her zu mir, neig her zu|mir, und mei-|ner Bitt _ _ _ sie öf-|
 c4 f4 e4 d4 | c4 z2 f2 e2 d2 cBAB | c4 f4 e2 d2 c2 BA | B2 c2 d4 c8 | z4 G4 A2 c2 B2 G2 | %15
w: fen, und mei- ner|Bitt, und mei- ner Bitt, _ _ _|_ und mei- ner Bitt _ _|_ sie öf- fen.|Denn so du willt das|
 A2 F2 E4 z4 G4 | A2 c2 A3 A c2 e2 d3 G | A2 c2 B4 z2 c2 d2 f2 | e2 c2 d8 c4 | B4 B4 A8 | %20
w: se- hen an, Denn|so du willt, Denn so du willt, Denn|so du willt, Denn so du|willt das se- *|* hen an,|
 z4 B4 G2 G2 d4 | e4 f4 d6 c2- | c2 B2 G2 G2 d4 e4 | f4 d4 c4 g4- | g4 e2 f2 d3 c B2 c2 | %25
w: was Sünd und Un-|recht ist ge- tan,|_ was Sünd und Un- recht|ist ge- tan, wer|_ kann, Herr, für _ _ dir|
 d4 c2 g2 e2 d2 c4 | B2 c2 d4 c4 z2 f2 | edcB A2 A2 G2 ^FE F2 G2 | A2 G4 ^F2 G4 z2 g2 | %29
w: blei- ben, wer kann, Herr, für|dir _ blei- ben, wer|kann, _ _ _ _ Herr, für _ _ _ dir|blei- * * ben, wer|
 e4 f4 d6 c2 | B2 c2 d2 A2 z2 d2 B4 | c4 A2 A4 d2 B4 | c4 A4 G4 z2 d2 | B4 z2 e2 c4 z2 f2 | %34
w: kann, Herr, für dir|blei- * * ben, wer kann,|Herr, für dir, wer kann,|Herr, für dir, wer|kann, wer kann, wer|
 d4 z2 g2 e4 f4- | f4 d6 c2 B4 | c4 d6 c2 c4- | c4 B2 A2 B8 | c6 g2 e2 d2 c2 B2 | A2 G2 A4 G8 |] %40
w: kann, wer kann, Herr,|_ für _ _|dir blei- * *||ben, wer kann, Herr, für _|_ dir blei- ben?|
V:2
 f4 e2 f2 g6 g2 | f2 g2 a6 gf g4 | d4 c2 f2 e4 d2 c2- | c2 BA B4 c4 d4 | c4 z2 g2 e2 d2 c2 f2 | %5
w: Aus tie- fer Not schrei|ich zu dir, _ _ _|Herr Gott, Herr Gott, er- hör,|_ er- * hör mein Ru-|fen. Herr Gott, er- hör, Herr|
 e2 d2 g2 a2 g4 G4 | z2 c2 B2 c2 d6 d2 | c2 d2 e8 f4- | f4 e4 d4 c2 BA | B2 c2 d6 c2 z2 g2 | %10
w: Gott, er- hör mein Ru- fen.|Dein gnä- dig Ohr neig|her zu mir, und|_ mei- ner Bitt _ _|_ sie öf- fen, und|
 e2 f2 defg a2 e2 f2 g2 | a2 f2 e2 d2 c6 f2- | f2 e2 d4 c2 d2 e2 f2 | g2 a2 g4 c4 z2 c2 | %14
w: mei- ner Bitt, _ _ _ _ und mei- ner|Bitt, und mei- ner Bitt, und|_ mei- ner Bitt _ _ _|_ sie öf- fen. Denn|
 d2 f2 e4 c4 d2 B2 | A6 c2 d2 f2 e4 | z2 c2 d2 f2 e2 c2 d2 B2 | A4 z2 e2 f2 a2 g2 d2 | %18
w: so du willt das se- hen|an, Denn so du willt,|Denn so du willt das se- hen|an, Denn so du willt das|
 a4 g2 f2 g2 d2 a4- | a4 ^g4 a4 z2 f2 | c2 c2 g4 e4 f2 d2 | c4 z2 d2 B2 G2 d2 e2 | %22
w: se- * * * * *|* hen an, was|Sünd und Un- recht ist ge-|tan, was Sünd und Un- recht|
 f2 g2 e4 d2 g4 a2- | a2 gf g4 z2 e2 c2 c2 | g4 a4 f4 d2 c2- | c2 B2 c4 z2 g2 e2 f2 | %26
w: ist ge- tan, ist ge- tan,|_ _ _ _ was Sünd und|Un- recht ist ge- tan,|_ _ _ wer kann, Herr,|
 d2 c2 B4 c4 d4 | c4 z2 d2 B2 c2 A2 G2 | ^F2 G2 A4 G2 g2 e3 d | c2 g2 a2 gf g2 fe d4 | %30
w: für dir blei- * *|ben, wer kann, Herr, für _|_ dir blei- ben, wer kann, _|_ Herr, für _ _ _ _ _ _|
 e4 f4 g4 z2 g2 | e4 f4 d2 d4 g2 | e4 f4 c4 d4 | z2 g2 e4 z2 a2 f4 | z2 g2 e4 a4 d2 e2 | f8 g6 g2 | %36
w: dir blei- ben, wer|kann, Herr, für dir, wer|kann, Herr, für dir,|wer kann, wer kann,|wer kann, Herr, für _|_ dir, wer|
 e4 f4 e6 dc | d4 e4 d8 | c16- | c16 |] %40
w: kann, Herr, für _ _|_ dir blei-|ben?|_|

